src/actions/24/mail-reply-custom-all.svg

<svg viewBox="0 0 24 24" xmlns="http://www.w3.org/2000/svg">
 <defs>
  <style type="text/css">.ColorScheme-Text {
        color:#2e3440;
      }</style>
 </defs>
 <path class="ColorScheme-Text" d="m2 4v9h1v-4h18v4 4 1.4141 0.58594h-12v1h6 6 1v-0.58594-0.41406-6-8-1h-1-0.46289-17.074-0.46289-0.95117-0.048828zm1 1h0.048828 1.4141 15.074 1.4141 0.048828v0.22266 2.7773h-18v-2.7773-0.22266zm2 9-3 3 3 3v-2-2-2zm1 2v2h1v-2h-1zm2 0v2h1v-2h-1z" fill="currentColor"/>
</svg>

<svg xmlns="http://www.w3.org/2000/svg" viewBox="0 0 24 24">
  <defs id="defs3051">
    <style type="text/css" id="current-color-scheme">
      .ColorScheme-Text {
        color:#2e3440;
      }
      </style>
  </defs>
 <path style="fill:currentColor;fill-opacity:1;stroke:none" 
     d="M 2 4 L 2 13 L 3 13 L 3 9 L 21 9 L 21 13 L 21 17 L 21 18.414062 L 21 19 L 9 19 L 9 20 L 15 20 L 21 20 L 22 20 L 22 19.414062 L 22 19 L 22 13 L 22 5 L 22 4 L 21 4 L 20.537109 4 L 3.4628906 4 L 3 4 L 2.0488281 4 L 2 4 z M 3 5 L 3.0488281 5 L 4.4628906 5 L 19.537109 5 L 20.951172 5 L 21 5 L 21 5.2226562 L 21 8 L 3 8 L 3 5.2226562 L 3 5 z M 5 14 L 2 17 L 5 20 L 5 18 L 5 16 L 5 14 z M 6 16 L 6 18 L 7 18 L 7 16 L 6 16 z M 8 16 L 8 18 L 9 18 L 9 16 L 8 16 z "
     class="ColorScheme-Text"
     />
</svg>
